img/svg/XD-Icon.svg

<svg width="300" height="300" viewBox="0 0 300 300" fill="none" xmlns="http://www.w3.org/2000/svg">
<path d="M250 0H50C22.3858 0 0 22.3858 0 50V250C0 277.614 22.3858 300 50 300H250C277.614 300 300 277.614 300 250V50C300 22.3858 277.614 0 250 0Z" fill="#470137"/>
<path d="M216.876 218.342C207.59 218.492 198.394 216.496 190.006 212.509C182.098 208.644 175.526 202.504 171.131 194.878C166.498 186.968 164.256 177.115 164.256 165.317C164.114 155.758 166.484 146.329 171.131 137.974C175.806 129.596 182.675 122.65 191 117.882C199.757 112.818 210.255 110.368 222.625 110.368C223.504 110.361 224.383 110.405 225.257 110.499C226.378 110.631 227.629 110.631 229.13 110.752V69.788C229.13 68.877 229.5 68.361 230.381 68.361H255.75C256.034 68.3227 256.322 68.3946 256.555 68.562C256.787 68.7294 256.947 68.9795 257.001 69.261V192.974C257.001 195.303 257.131 197.895 257.252 200.751C257.373 203.607 257.632 206.068 257.752 208.265C257.772 208.689 257.663 209.11 257.44 209.471C257.216 209.833 256.889 210.119 256.501 210.291C249.972 213.145 243.135 215.232 236.125 216.509C229.778 217.706 223.335 218.319 216.876 218.342V218.342ZM229.126 192.417V135.371C228.015 135.098 226.884 134.885 225.753 134.723C224.372 134.601 223.001 134.47 221.62 134.47C216.694 134.408 211.829 135.567 207.459 137.842C203.17 140.07 199.524 143.362 196.871 147.402C194.129 151.554 192.748 157.124 192.748 163.869C192.636 168.411 193.358 172.935 194.879 177.216C196.068 180.654 197.987 183.794 200.504 186.421C202.89 188.795 205.802 190.572 209.004 191.607C212.346 192.741 215.853 193.309 219.382 193.288C221.254 193.288 223.005 193.156 224.626 193.034C226.155 193.144 227.69 192.923 229.126 192.386V192.417Z" fill="#FF61F6"/>
<path d="M155.437 84.7831L118.057 148.347L157.957 215.747C158.217 216.214 158.306 216.757 158.206 217.282C158.087 217.794 157.588 217.412 156.84 217.543H128.312C126.317 217.543 124.95 217.412 124.073 216.129C121.459 210.729 118.715 205.476 116.092 200.08C113.469 194.684 110.605 189.427 107.612 183.901C104.619 178.375 101.627 172.867 98.634 167.21H98.385C95.771 172.737 92.908 178.243 90.035 183.77C87.162 189.297 84.308 194.804 81.565 200.21C78.822 205.616 75.819 211.163 72.926 216.389C72.426 217.673 71.426 217.789 70.063 217.789H42.669C42.169 217.789 41.801 218.049 41.801 217.407C41.7433 217.168 41.7356 216.92 41.7785 216.678C41.8213 216.435 41.9138 216.205 42.05 216L80.8 150.523L43.048 84.6631C42.669 84.1411 42.548 83.6631 42.799 83.3791C42.9466 83.1948 43.1381 83.0505 43.356 82.9595C43.5739 82.8684 43.8111 82.8336 44.046 82.8581H72.327C72.9174 82.8739 73.5036 82.9612 74.073 83.1181C74.5723 83.4012 74.9991 83.7962 75.32 84.2721C77.684 89.7991 80.428 95.3051 83.301 100.832C86.174 106.359 89.157 111.745 92.279 117.142C95.401 122.539 98.015 127.924 100.629 133.451H100.859C103.472 127.794 106.216 122.277 108.959 116.881C111.702 111.485 114.566 106.098 117.429 100.712C120.292 95.3261 123.035 89.8001 125.8 84.5331C125.883 84.0273 126.149 83.5699 126.549 83.2491C127.038 82.9689 127.613 82.8761 128.165 82.9881H154.465C154.611 82.9562 154.762 82.9534 154.91 82.98C155.057 83.0066 155.198 83.062 155.323 83.143C155.449 83.224 155.558 83.329 155.643 83.4521C155.728 83.5751 155.788 83.7138 155.82 83.8601V83.8711C155.95 84.0011 155.7 84.5131 155.451 84.7631L155.437 84.7831Z" fill="#FF61F6"/>
</svg>

<svg id="XD" xmlns="http://www.w3.org/2000/svg" width="300" height="300" viewBox="0 0 300 300">
  <defs>
    <style>
      .cls-1 {
        fill: #470137;
      }

      .cls-2 {
        fill: #ff61f6;
      }
    </style>
  </defs>
  <rect id="XD-2" data-name="XD" class="cls-1" width="300" height="300" rx="50"/>
  <g id="XD-3" data-name="XD">
    <path id="XD-4" data-name="XD" class="cls-2" d="M216.876,218.342a60.314,60.314,0,0,1-26.87-5.833,44.174,44.174,0,0,1-18.875-17.631c-4.633-7.91-6.875-17.763-6.875-29.561a54.584,54.584,0,0,1,6.875-27.343A52.807,52.807,0,0,1,191,117.882c8.757-5.064,19.255-7.514,31.625-7.514a22.911,22.911,0,0,1,2.632.131c1.121.132,2.372.132,3.873.253V69.788c0-.911.37-1.427,1.251-1.427h25.369a1.121,1.121,0,0,1,1.251.9V192.974c0,2.329.13,4.921.251,7.777s.38,5.317.5,7.514a2.11,2.11,0,0,1-1.251,2.026,92.069,92.069,0,0,1-20.376,6.218A105.872,105.872,0,0,1,216.876,218.342Zm12.25-25.925V135.371c-1.111-.273-2.242-.486-3.373-.648-1.381-.122-2.752-.253-4.133-.253a29.85,29.85,0,0,0-14.161,3.372,28.235,28.235,0,0,0-10.588,9.56c-2.742,4.152-4.123,9.722-4.123,16.467a37.134,37.134,0,0,0,2.131,13.347,25.232,25.232,0,0,0,5.625,9.205,21.373,21.373,0,0,0,8.5,5.186,31.729,31.729,0,0,0,10.378,1.681c1.872,0,3.623-.132,5.244-.254a10.655,10.655,0,0,0,4.5-.648Z"/>
    <path id="XD-5" data-name="XD" class="cls-2" d="M155.437,84.783l-37.38,63.564,39.9,67.4a2.278,2.278,0,0,1,.249,1.535c-.119.512-.618.13-1.366.261H128.312c-1.995,0-3.362-.131-4.239-1.414-2.614-5.4-5.358-10.653-7.981-16.049s-5.487-10.653-8.48-16.179-5.985-11.034-8.978-16.691h-.249c-2.614,5.527-5.477,11.033-8.35,16.56s-5.727,11.034-8.47,16.44-5.746,10.953-8.639,16.179c-.5,1.284-1.5,1.4-2.863,1.4H42.669c-.5,0-.868.26-.868-.382A1.784,1.784,0,0,1,42.05,216L80.8,150.523,43.048,84.663c-.379-.522-.5-1-.249-1.284a1.41,1.41,0,0,1,1.247-.521H72.327a7.306,7.306,0,0,1,1.746.26,3.714,3.714,0,0,1,1.247,1.154c2.364,5.527,5.108,11.033,7.981,16.56s5.856,10.913,8.978,16.31,5.736,10.782,8.35,16.309h.23c2.613-5.657,5.357-11.174,8.1-16.57s5.607-10.783,8.47-16.169S123.035,89.8,125.8,84.533a2.075,2.075,0,0,1,.749-1.284,2.323,2.323,0,0,1,1.616-.261h26.3a1.138,1.138,0,0,1,1.355.872l0,.011h0c.13.13-.12.642-.369.892Z"/>
  </g>
</svg>
